svg/edit.svg

<svg width="24" height="24" viewBox="0 0 24 24" fill="none" xmlns="http://www.w3.org/2000/svg">
<path d="M16.2929 2.29289C16.6834 1.90237 17.3166 1.90237 17.7071 2.29289L21.7071 6.29289C22.0976 6.68342 22.0976 7.31658 21.7071 7.70711L8.70711 20.7071C8.51957 20.8946 8.26522 21 8 21H4C3.44772 21 3 20.5523 3 20V16C3 15.7348 3.10536 15.4804 3.29289 15.2929L13.2927 5.2931L16.2929 2.29289ZM14 7.41421L5 16.4142V19H7.58579L16.5858 10L14 7.41421ZM18 8.58579L19.5858 7L17 4.41421L15.4142 6L18 8.58579Z" fill="#0D0D0D"/>
</svg>

<svg width="24" height="24" fill="none" xmlns="http://www.w3.org/2000/svg"><path d="M16.293 2.293a1 1 0 011.414 0l4 4a1 1 0 010 1.414l-13 13A1 1 0 018 21H4a1 1 0 01-1-1v-4a1 1 0 01.293-.707l10-10 3-3zM14 7.414l-9 9V19h2.586l9-9L14 7.414zm4 1.172L19.586 7 17 4.414 15.414 6 18 8.586z" fill="#0D0D0D"/></svg>
